flaticon/technology/television-2.svg

<svg xmlns="http://www.w3.org/2000/svg" width="32" height="32" viewBox="0 0 24 24">
    <path d="M2 8.097656C2.101562 8.097656 2.203125 8.058594 2.28125 7.980469L3.882812 6.382812C4.039062 6.226562 4.039062 5.972656 3.882812 5.816406 3.726562 5.660156 3.472656 5.660156 3.316406 5.816406L1.71875 7.417969C1.5625 7.574219 1.5625 7.824219 1.71875 7.980469 1.796875 8.058594 1.898438 8.097656 2 8.097656zM2 10.097656C2.101562 10.097656 2.203125 10.058594 2.28125 9.980469L3.082031 9.183594C3.238281 9.027344 3.238281 8.773438 3.082031 8.617188 2.925781 8.460938 2.671875 8.460938 2.515625 8.617188L1.71875 9.417969C1.5625 9.574219 1.5625 9.824219 1.71875 9.980469 1.796875 10.058594 1.898438 10.097656 2 10.097656zM3.316406 7.816406C3.242188 7.890625 3.199219 7.996094 3.199219 8.097656 3.199219 8.203125 3.242188 8.308594 3.316406 8.382812 3.390625 8.457031 3.496094 8.5 3.601562 8.5 3.703125 8.5 3.808594 8.457031 3.882812 8.382812 3.957031 8.308594 4 8.203125 4 8.097656 4 7.996094 3.957031 7.890625 3.882812 7.816406 3.730469 7.667969 3.464844 7.667969 3.316406 7.816406zM4.117188 7.582031C4.195312 7.660156 4.296875 7.699219 4.398438 7.699219 4.503906 7.699219 4.605469 7.660156 4.683594 7.582031L5.882812 6.382812C6.039062 6.226562 6.039062 5.972656 5.882812 5.816406 5.726562 5.660156 5.472656 5.660156 5.316406 5.816406L4.117188 7.015625C3.960938 7.171875 3.960938 7.425781 4.117188 7.582031zM5.316406 7.816406L1.71875 11.417969C1.5625 11.574219 1.5625 11.824219 1.71875 11.980469 1.796875 12.058594 1.898438 12.097656 2 12.097656 2.101562 12.097656 2.203125 12.058594 2.28125 11.980469L5.882812 8.382812C6.039062 8.226562 6.039062 7.972656 5.882812 7.816406 5.726562 7.660156 5.472656 7.660156 5.316406 7.816406zM6.117188 7.015625C6.042969 7.089844 6 7.195312 6 7.300781 6 7.402344 6.042969 7.507812 6.117188 7.582031 6.191406 7.65625 6.292969 7.699219 6.398438 7.699219 6.507812 7.699219 6.609375 7.65625 6.683594 7.582031 6.757812 7.507812 6.800781 7.402344 6.800781 7.300781 6.800781 7.195312 6.757812 7.089844 6.683594 7.015625 6.535156 6.867188 6.269531 6.867188 6.117188 7.015625zM7.316406 5.816406L6.917969 6.21875C6.761719 6.375 6.761719 6.625 6.917969 6.78125 6.996094 6.859375 7.097656 6.898438 7.199219 6.898438 7.300781 6.898438 7.40625 6.859375 7.484375 6.78125L7.882812 6.382812C8.039062 6.226562 8.039062 5.972656 7.882812 5.816406 7.726562 5.660156 7.472656 5.660156 7.316406 5.816406zM7.316406 5.816406"/>
    <path d="M 22.199219 2.898438 L 1.800781 2.898438 C 0.808594 2.898438 0 3.707031 0 4.699219 L 0 16.699219 C 0 17.691406 0.808594 18.5 1.800781 18.5 L 9.601562 18.5 L 9.601562 19.300781 L 8.199219 19.300781 C 7.429688 19.300781 6.800781 19.929688 6.800781 20.699219 C 6.800781 20.921875 6.980469 21.101562 7.199219 21.101562 C 7.421875 21.101562 7.601562 20.921875 7.601562 20.699219 C 7.601562 20.371094 7.871094 20.101562 8.199219 20.101562 L 15.800781 20.101562 C 16.128906 20.101562 16.398438 20.371094 16.398438 20.699219 C 16.398438 20.921875 16.578125 21.101562 16.800781 21.101562 C 17.019531 21.101562 17.199219 20.921875 17.199219 20.699219 C 17.199219 19.929688 16.570312 19.300781 15.800781 19.300781 L 14.398438 19.300781 L 14.398438 18.5 L 22.199219 18.5 C 23.191406 18.5 24 17.691406 24 16.699219 L 24 4.699219 C 24 3.707031 23.191406 2.898438 22.199219 2.898438 Z M 0.800781 4.898438 L 23.199219 4.898438 L 23.199219 16.5 L 0.800781 16.503906 Z M 1.800781 3.699219 L 22.199219 3.699219 C 22.527344 3.699219 22.8125 3.859375 22.996094 4.097656 L 1.003906 4.097656 C 1.1875 3.859375 1.472656 3.699219 1.800781 3.699219 Z M 13.601562 19.300781 L 10.398438 19.300781 L 10.398438 18.5 L 13.601562 18.5 Z M 22.199219 17.699219 L 1.800781 17.699219 C 1.472656 17.699219 1.1875 17.542969 1.003906 17.300781 L 22.996094 17.300781 C 22.8125 17.542969 22.527344 17.699219 22.199219 17.699219 Z M 22.199219 17.699219"/>
</svg>

<svg xmlns="http://www.w3.org/2000/svg" width="32" height="32" viewBox="0 0 24 24">
    <path d="M2 8.098c.102 0 .203-.04.281-.118l1.602-1.597a.4.4 0 0 0-.567-.567L1.72 7.418a.396.396 0 0 0 0 .562c.078.079.18.118.281.118zm0 0M2 10.098c.102 0 .203-.04.281-.118l.801-.796a.4.4 0 0 0-.566-.567l-.797.801a.396.396 0 0 0 0 .562c.078.079.18.118.281.118zm0 0M3.316 7.816a.406.406 0 0 0-.117.282c0 .105.043.21.117.285.075.074.18.117.286.117a.406.406 0 0 0 .28-.117A.409.409 0 0 0 4 8.098a.406.406 0 0 0-.117-.282.416.416 0 0 0-.567 0zm0 0M4.117 7.582a.399.399 0 0 0 .566 0l1.2-1.2a.4.4 0 0 0-.567-.566l-1.199 1.2a.4.4 0 0 0 0 .566zm0 0M5.316 7.816L1.72 11.418a.396.396 0 0 0 0 .562.396.396 0 0 0 .562 0l3.602-3.597a.4.4 0 0 0-.567-.567zm0 0M6.117 7.016A.409.409 0 0 0 6 7.3a.4.4 0 0 0 .8 0 .409.409 0 0 0-.116-.285.416.416 0 0 0-.567 0zm0 0M7.316 5.816l-.398.403a.396.396 0 0 0 0 .562c.078.078.18.117.281.117.102 0 .207-.039.285-.117l.399-.398a.4.4 0 0 0-.567-.567zm0 0"/>
    <path d="M22.2 2.898H1.8C.81 2.898 0 3.707 0 4.7v12c0 .992.809 1.801 1.8 1.801h7.802v.8H8.199c-.77 0-1.398.63-1.398 1.4a.401.401 0 1 0 .8 0 .6.6 0 0 1 .598-.598h7.602a.6.6 0 0 1 .597.597.401.401 0 0 0 .8 0c.001-.77-.628-1.398-1.397-1.398h-1.403V18.5H22.2c.992 0 1.801-.809 1.801-1.8v-12c0-.993-.809-1.802-1.8-1.802zm-21.4 2h22.4V16.5l-22.4.004zm1-1.199h20.4c.327 0 .613.16.796.399H1.004c.183-.239.469-.399.797-.399zm11.802 15.602h-3.204V18.5h3.204zm8.597-1.602H1.801a.993.993 0 0 1-.797-.398h21.992a.993.993 0 0 1-.797.398zm0 0"/>
</svg>
